X:183
T: ICH WASS WOL WENNS GUT WANDERN
N: E0769
O: Europa, Mitteleuropa, Deutschland, Kuhlaendchen
R: Abschieds -, Wander -, Handwerksburschen - Lied
M: 2/4
L: 1/8
K: F
F | FAAc | cdd2 |
cBBA | Acc2 |
AccB | BAA2 |
AccB | B2A2 | A3

@@@ Tune index: 4496
